X:230
T:Over the waterfall
R:Reel/Polka
O:USA
S:My arrangement from various sources
Z:Transcription, arrangement, chords:Mike Long
M:C|
L:1/8
K:D
de|\
"D"f2af "A"gfe2|"D"d2B2 A2de|"D"f2af "A"gfe2|"D"ef2 ef2 de|\
"D"f2af "A"gfe2|
"D"d2B2 A2AB|"C"=c2c2 B2A2|[1 "G"G4 G2 :|[2 "G"G4 G2FG\
|:"D"A2A2 "G"B2B2|"D"ABAG F2FG|"D"A2d2 "A"cde2|
"D"ef2 ef2 FG|\
"D"A2A2 "G"B2B2|"D"ABAG F2FG|"D"A2F2 "A"GFE2|[1 "D"D4 D2FG :|[2 "D"D4 D2 |]
